app/dist/common/images/manhattan-associates.svg

<svg height="18" width="18" xmlns="http://www.w3.org/2000/svg"><path d="m0 0h18v18h-18z" fill="#13316b"/><path d="m14 8v2l-2.333 3h-1.667zm0-3v2.333l-4.667 5.667h-1.666zm-5 3v2.333l-2 2.667h-1.667zm0-3v2.333l-4.333 5.667h-1.667zm5 8h-1.667l1.667-2.333z" fill="#fff"/></svg>

<!-- by TradingView --><svg width="18" height="18" xmlns="http://www.w3.org/2000/svg"><path fill="#13316B" d="M0 0h18v18H0z"/><path d="M14 8v2l-2.333 3H10l4-5zm0-3v2.333L9.333 13H7.667L14 5zM9 8v2.333L7 13H5.333L9 8zm0-3v2.333L4.667 13H3l6-8zm5 8h-1.667L14 10.667V13z" fill="#fff"/></svg>
